!!!COM: Robert Schumann
!!!CNT: Deutsch
!!!TXO: Deutsch
!!!OTL: "Mond, meiner Seele Liebling"
!!!LYR: Elizabeth Kulmann
!!!OPR: Sieben Lieder
!!!OPS: Op. 104
!!!ONM: No. 1
!!!ENC: Leigh VanHandel
!!!YOR: Schumann Lieder - Max Friedlaender, ed.,
!!!YOR: New York: C. F. Peters, Vol. 3
!!!ODT: 1851/
**kern	**silbe
*staff1	*
*clefG2	*
*k[b-e-]	*
*M2/4	*
*MM[Langsam]	*
=1	=1
{4g	{Mond,
8b-	mei-
8b-	-ner
=2	=2
8a	See-
8a	-le
8f#	Lieb-
8d}	-ling,
=3	=3
8r	.
{8g	wie
16cc	schaust
16dd	du
[8ee-	heut'
=4	=4
8ee-]	|
8f#	so
4g}	blass?}
=5	=5
{8b-	{Ist
16g	ei-
16b-	-nes
8a	dei-
8d	-ner
=6	=6
8g	Kin-
8g}	-der,}
8r	.
{8b-	{o
=7	=7
8.a	Mond,
16d	viel-
8d	-leicht
8c#	un-
=8	=8
4d}	pass?}
8r	.
{8dd	{Ach
=9	=9
8cc	gu-
8b-	-ter
8a	Mond,
8g	ein
=10	=10
8a	glei-
16f#	-ches
16f#	Gesch-
8d	-ick
8d	be-
=11	=11
4g	-fiel
4f#	auch
=12	=12
4a}	mich.}
{[4dd	Drin-
=13	=13
8dd]	|
16f	-liegt
16g	mir
8a-	krank
8g	die
=14	=14
8f	Mut-
8e-}	-ter,}
8r	.
{8e-	{hat
=15	=15
8cc	mich
8cc	nur
8b-	jetzt
8b-	um
=16	=16
4.a}	sich!}
{8f#	{So-
=17	=17
8g	-e-
8en	-ben
8.bn	schloss
16g	ihr
=18	=18
8g	Schlum-
8f#}	-mer}
8r	.
{8f#	{das
=19	=19
8g	Aug'
8bn	ein
8a	Weil-
8cc#	-chen
=20	=20
4dd}	zu;}
{4dd	{da
=21	=21
8.a	wich,
16a	mein
8b-	Herz
8g	zu
=22	=22
8g	sta1r-
16f#}	-ken,}
{16f#	{vom
8en	Ort
8d	ich
=23	=23
4.g	ih-
8a	-rer
=24	=24
4a}	Ruh'.}
{4dd	{Trost
=25	=25
*k[f#]	*
8b	sei
8g	mir,
8f#	Mond,
8a	dein
=26	=26
8a	An-
8g}	-blick,}
8r	.
{8g	{ich
=27	=27
8.cc	lei-
16b	-de
8cc	nicht
8b	al-
=28	=28
4a}	-lein:}
{4a	{du
=29	=29
16a	bist
16b	der
4cc	Welt
8dd	Mit-
=30	=30
8cc	-herr-
16b}	-scher,}
{16b	{und
8e	kannst
8a	nicht
=31	=31
8.f#	stets
16f#	dich
4g}	freu'n!}
==	==
*-	*-
